!!!OTL: ES SEI MEIN HERZ UND BLUT GEWEIHT
!!!ARE: Europa, Mitteleuropa, Deutschland
!!!SCT: B0049
!!!YEM: Copyright 1995, estate of Helmut Schaffrath.
**kern
*ICvox
*Ivox
*M4/4
*k[b-e-a-]
*E-:
{8e-
8f
=1
4g
4a-
4b-
8cc
8dd
=2
4ee-
8dd
8cc
4b-}
{4cc
=3
4a-
4b-
4g
8b-
8a-
=4
4g
4f
4r}
{8e-
8f
=5
4g
4a-
4b-
8cc
8dd
=6
4ee-
8dd
8cc
4b-}
{4cc
=7
4a-
4b-
4g
8b-
8a-
=8
4g
4f
4r}
{4f
=9
4f
4g
4.a-
8f
=10
4g
4a-
4b-}
{4b-
=11
4cc
4b-
4cc
4dd
=12
4ee-
8dd
8cc
4b-}
{4cc
=13
4a-
4b-
4g
8b-
8a-
=14
4g
4f
4e-}
==
!!!AGN: Kriegs -, Sieges -, Soldaten - Lied
!!!ONB: ESAC (Essen Associative Code) Database: BOEHME
!!!AMT: simple quadruple
!!!AIN: vox
!!!EED: Helmut Schaffrath
!!!EEV: 1.0
*-
